X:6851
T:Hart's Scotch Set,#4. JNu.54
T:White Cockade,aka. JNu.54
M:2/4
L:1/16
Q:100
S:James Nuttall MS,c1830,Rossendale,East Lancs.
R:Scots Measure
O:England
A:East Lancashire
Z:vmp.Manchester Morris Men
K:G
GA|BGBd cBAG|BGBd g2GA|BGBd cBAG|FGAB A2GA|!
BGBd cBAG|BGBd g2ga|bagf efge|d2B2B2::!
Bc|d2B2 g2Bc|d^cde d2B=c|d2B2 g2fg|a2A2 A2GA|!
BGBd cBAG|BGBd g2ga|bagf efge|d2B2B2:|]
